logo.svg

<svg xmlns="http://www.w3.org/2000/svg" width="1280" height="1280">
  <path d="M0 0h1280v1280H0Zm690 495-5 4-3 3-12 7-13 5-1 1v66h-2l-2-4-9-8-11-5-8-2h-23l-13 4-11 6-9 7-8 10-7 14-3 10-1 5v22l3 12 5 12 8 11 4 5 13 9 12 5 11 2h17l12-3 12-7 7-6 2-3 1 16 5 1 31-1V495Zm-538 11v188l41-1v-58h44l13-2 12-4 12-7 10-9 7-10 5-12 2-8 1-17-2-14-5-13-8-11-9-9-16-8-11-3-13-2Zm558 0v187l2 1 34-1v-17l10 10 9 6 10 3 17 1 17-3 14-7 9-7v-2h2l8-11 5-10 4-14 1-7v-11l-2-12-5-15-6-10-9-10-9-7-10-5-12-3h-23l-10 3-9 6-9 8-3 3v-76Zm234 51-5 3-3 6 2 6 3 4 7 1 6-3 2-4-1-7-4-5Zm-35 0-5 2-3 4v8l5 5h8l5-4 1-7-4-6-4-2Zm-445 4-14 2-10 3-15 8-11 10-7 10-6 14-2 7v26l3 11 5 11 6 9 9 9 11 7 12 5 14 3h21l14-3 16-8 11-9 9-12 5-11 3-11 1-8v-10l-2-13-5-13-7-12-10-10-13-8-15-5-14-2Zm-86 2-12 4-11 8-10 13-1-23h-37l-1 128h39l1-63 2-8 5-10 7-7 11-4 5-1 19 1v-37l-3-1Zm614 2 4 7 7 9 9 12 12 16 12 17 1 3-13 18-12 17-11 15-8 11-1 4h41l8-11 8-12 10-14 1-1 7 11 11 15 7 11 39 1 3-1-2-5-16-21-7-10-12-16-6-9-3-5 13-18 11-15 10-13 10-13 1-3h-42l-6 7-9 13-9 14-2 1-2-4-14-20-7-10-2-1Zm-122 23-5 5-1 5 3 7 3 2h8l5-5 1-6-2-5-4-3Zm36 0-5 5v9l5 5h8l5-5 1-5-3-7-3-2Zm37 0-4 2-3 7 3 7 4 3h7l5-5 1-6-4-7-2-1Zm35 0-5 6v7l4 5 2 1h7l5-4 1-2-1-9-5-4Zm-107 30-5 4-1 2v8l5 5h8l5-5 1-5-3-6-3-3Zm36 0-6 5v9l3 4 6 2 7-3 3-5-1-7-5-5Zm35 0-5 6-1 4 3 7 3 2h9l4-4 1-8-6-7Zm37 0-5 4-1 2v8l5 5h9l5-6v-6l-3-5-3-2Zm-110 31-4 5v9l4 4 7 1 6-3 2-5-1-6-5-5Zm36 0-4 5v8l4 5 7 1 6-4 2-6-3-7-2-2Zm37 0-5 5v8l5 5 6 1 5-3 3-5-1-7-5-4Zm36 0-4 3-1 3v7l4 5 8 1 6-4 1-2v-7l-5-6Zm-72 30-5 5v8l2 4 3 2h8l5-5 1-7-4-6-2-1Zm36 0-5 5v8l4 5 2 1h7l5-5 1-7-4-6-2-1Zm92 25-5 4-1 2v6l5 5h9l4-4 1-6-3-5-3-2Zm-41 2-1 24-8-4h-15l-8 4-6 5-5 10-1 4v8l3 8 4 6 6 5 6 3h16l9-5 1 4 3 1 12-1v-71Zm-217 1-9 3-8 6-4 9v7l3 7 5 5 8 4 21 6h2v9l-7 2h-9l-11-4-6-3-4 2-4 6 1 4 10 6 9 3 12 1 11-2 8-4 6-7 1-3v-11l-4-8-9-6-21-6-5-3 1-7 3-1h14l10 4 3 1 5-9-1-4-10-5-9-2Zm56 7-1 13h-7v12l8 1v26l3 7 6 5 3 1h14l6-2-1-7-3-5-8 1-4-3-1-23 15-1v-10l-1-1h-14v-14Zm253 12-10 4-3 2v2l-4 2-4 7-1 4v13l4 8 7 7 10 4h18l9-4 8-7 4-8v-13l-5-10-9-8-8-3Zm-206 1-1 1v30l2 10 5 7 8 4h15l10-6-1 3 3 3h10l3-1v-50l-1-1h-14l-1 1-1 26-2 9-10 2-7-1-2-11v-25l-1-1Zm151 0-1 1v50l2 1h14v-52Z"/>
  <path d="M193 539h41l10 3 9 7 5 10 1 4v13l-3 10-5 8-10 7-14 3h-34Zm421 53h14l9 3 5 2v2l4 2 8 11 2 7v18l-4 11-8 10-10 6-10 2-11-1-10-4-7-6-7-11-2-7-1-11 3-12 3-6 5-7h2v-2l8-5Zm158 0h14l9 3 9 6 7 11 3 10v12l-4 13-6 9-8 6-7 3-5 1h-9l-10-3-9-6-8-11-3-10v-15l3-9 5-8 7-7 8-4Zm-312 1h17l10 4 6 5 6 9 3 11v14l-3 10-6 10-9 6-9 3h-12l-10-3-8-6-4-5-4-8-2-9v-12l3-10 6-9 8-7Zm519 145 7 2 5 4 2 5v7l-3 6-6 4h-10l-5-3-3-5-1-6 3-8 6-5Zm109 1h10l7 6 1 3v10l-3 5-5 3h-10l-6-4-3-6v-7l4-6Z"/>
</svg>

<?xml version="1.0" encoding="UTF-8"?>
<svg version="1.1" xmlns="http://www.w3.org/2000/svg" width="1280" height="1280">
<path d="M0,0 L1280,0 L1280,1280 L0,1280 Z M690,495 L685,499 L682,502 L670,509 L657,514 L656,515 L656,581 L654,581 L652,577 L643,569 L632,564 L624,562 L601,562 L588,566 L577,572 L568,579 L560,589 L553,603 L550,613 L549,618 L549,640 L552,652 L557,664 L565,675 L569,680 L582,689 L594,694 L605,696 L622,696 L634,693 L646,686 L653,680 L655,677 L656,693 L661,694 L692,693 L692,495 Z M152,506 L152,694 L193,693 L193,635 L237,635 L250,633 L262,629 L274,622 L284,613 L291,603 L296,591 L298,583 L299,566 L297,552 L292,539 L284,528 L275,519 L259,511 L248,508 L235,506 Z M710,506 L710,693 L712,694 L746,693 L746,676 L756,686 L765,692 L775,695 L792,696 L809,693 L823,686 L832,679 L832,677 L834,677 L842,666 L847,656 L851,642 L852,635 L852,624 L850,612 L845,597 L839,587 L830,577 L821,570 L811,565 L799,562 L776,562 L766,565 L757,571 L748,579 L745,582 L745,506 Z M944,557 L939,560 L936,566 L938,572 L941,576 L948,577 L954,574 L956,570 L955,563 L951,558 Z M909,557 L904,559 L901,563 L901,571 L906,576 L914,576 L919,572 L920,565 L916,559 L912,557 Z M464,561 L450,563 L440,566 L425,574 L414,584 L407,594 L401,608 L399,615 L399,641 L402,652 L407,663 L413,672 L422,681 L433,688 L445,693 L459,696 L480,696 L494,693 L510,685 L521,676 L530,664 L535,653 L538,642 L539,634 L539,624 L537,611 L532,598 L525,586 L515,576 L502,568 L487,563 L473,561 Z M378,563 L366,567 L355,575 L345,588 L344,565 L307,565 L306,693 L345,693 L346,630 L348,622 L353,612 L360,605 L371,601 L376,600 L395,601 L395,564 L392,563 Z M992,565 L996,572 L1003,581 L1012,593 L1024,609 L1036,626 L1037,629 L1024,647 L1012,664 L1001,679 L993,690 L992,694 L1033,694 L1041,683 L1049,671 L1059,657 L1060,656 L1067,667 L1078,682 L1085,693 L1124,694 L1127,693 L1125,688 L1109,667 L1102,657 L1090,641 L1084,632 L1081,627 L1094,609 L1105,594 L1115,581 L1125,568 L1126,565 L1084,565 L1078,572 L1069,585 L1060,599 L1058,600 L1056,596 L1042,576 L1035,566 L1033,565 Z M870,588 L865,593 L864,598 L867,605 L870,607 L878,607 L883,602 L884,596 L882,591 L878,588 Z M906,588 L901,593 L901,602 L906,607 L914,607 L919,602 L920,597 L917,590 L914,588 Z M943,588 L939,590 L936,597 L939,604 L943,607 L950,607 L955,602 L956,596 L952,589 L950,588 Z M978,588 L973,594 L973,601 L977,606 L979,607 L986,607 L991,603 L992,601 L991,592 L986,588 Z M871,618 L866,622 L865,624 L865,632 L870,637 L878,637 L883,632 L884,627 L881,621 L878,618 Z M907,618 L901,623 L901,632 L904,636 L910,638 L917,635 L920,630 L919,623 L914,618 Z M942,618 L937,624 L936,628 L939,635 L942,637 L951,637 L955,633 L956,625 L950,618 Z M979,618 L974,622 L973,624 L973,632 L978,637 L987,637 L992,631 L992,625 L989,620 L986,618 Z M869,649 L865,654 L865,663 L869,667 L876,668 L882,665 L884,660 L883,654 L878,649 Z M905,649 L901,654 L901,662 L905,667 L912,668 L918,664 L920,658 L917,651 L915,649 Z M942,649 L937,654 L937,662 L942,667 L948,668 L953,665 L956,660 L955,653 L950,649 Z M978,649 L974,652 L973,655 L973,662 L977,667 L985,668 L991,664 L992,662 L992,655 L987,649 Z M906,679 L901,684 L901,692 L903,696 L906,698 L914,698 L919,693 L920,686 L916,680 L914,679 Z M942,679 L937,684 L937,692 L941,697 L943,698 L950,698 L955,693 L956,686 L952,680 L950,679 Z M1034,704 L1029,708 L1028,710 L1028,716 L1033,721 L1042,721 L1046,717 L1047,711 L1044,706 L1041,704 Z M993,706 L992,730 L984,726 L969,726 L961,730 L955,735 L950,745 L949,749 L949,757 L952,765 L956,771 L962,776 L968,779 L984,779 L993,774 L994,778 L997,779 L1009,778 L1009,707 Z M776,707 L767,710 L759,716 L755,725 L755,732 L758,739 L763,744 L771,748 L792,754 L794,754 L794,763 L787,765 L778,765 L767,761 L761,758 L757,760 L753,766 L754,770 L764,776 L773,779 L785,780 L796,778 L804,774 L810,767 L811,764 L811,753 L807,745 L798,739 L777,733 L772,730 L773,723 L776,722 L790,722 L800,726 L803,727 L808,718 L807,714 L797,709 L788,707 Z M832,714 L831,727 L824,727 L824,739 L832,740 L832,766 L835,773 L841,778 L844,779 L858,779 L864,777 L863,770 L860,765 L852,766 L848,763 L847,740 L862,739 L862,729 L861,728 L847,728 L847,714 Z M1085,726 L1075,730 L1072,732 L1072,734 L1068,736 L1064,743 L1063,747 L1063,760 L1067,768 L1074,775 L1084,779 L1102,779 L1111,775 L1119,768 L1123,760 L1123,747 L1118,737 L1109,729 L1101,726 Z M879,727 L878,728 L878,758 L880,768 L885,775 L893,779 L908,779 L918,773 L917,776 L920,779 L930,779 L933,778 L933,728 L932,727 L918,727 L917,728 L916,754 L914,763 L904,765 L897,764 L895,753 L895,728 L894,727 Z M1030,727 L1029,728 L1029,778 L1031,779 L1045,779 L1045,727 Z " fill="#000000" transform="translate(0,0)"/>
<path d="M0,0 L41,0 L51,3 L60,10 L65,20 L66,24 L66,37 L63,47 L58,55 L48,62 L34,65 L0,65 Z " fill="#000000" transform="translate(193,539)"/>
<path d="M0,0 L14,0 L23,3 L28,5 L28,7 L32,9 L40,20 L42,27 L42,45 L38,56 L30,66 L20,72 L10,74 L-1,73 L-11,69 L-18,63 L-25,52 L-27,45 L-28,34 L-25,22 L-22,16 L-17,9 L-15,9 L-15,7 L-7,2 Z " fill="#000000" transform="translate(614,592)"/>
<path d="M0,0 L14,0 L23,3 L32,9 L39,20 L42,30 L42,42 L38,55 L32,64 L24,70 L17,73 L12,74 L3,74 L-7,71 L-16,65 L-24,54 L-27,44 L-27,29 L-24,20 L-19,12 L-12,5 L-4,1 Z " fill="#000000" transform="translate(772,592)"/>
<path d="M0,0 L17,0 L27,4 L33,9 L39,18 L42,29 L42,43 L39,53 L33,63 L24,69 L15,72 L3,72 L-7,69 L-15,63 L-19,58 L-23,50 L-25,41 L-25,29 L-22,19 L-16,10 L-8,3 Z " fill="#000000" transform="translate(460,593)"/>
<path d="M0,0 L7,2 L12,6 L14,11 L14,18 L11,24 L5,28 L-5,28 L-10,25 L-13,20 L-14,14 L-11,6 L-5,1 Z " fill="#000000" transform="translate(979,738)"/>
<path d="M0,0 L10,0 L17,6 L18,9 L18,19 L15,24 L10,27 L0,27 L-6,23 L-9,17 L-9,10 L-5,4 Z " fill="#000000" transform="translate(1088,739)"/>
</svg>
